icons/circle/48/star-uml.svg

<svg xmlns="http://www.w3.org/2000/svg" version="1.1" viewBox="0 0 48 48">
	<defs>
		<linearGradient id="bg" gradientUnits="userSpaceOnUse" x1="0" x2="0" y1="1" y2="47">
			<stop offset="0" stop-color="#3ca43a"/>
			<stop offset="1" stop-color="#379535"/>
		</linearGradient>
	</defs>
	<path opacity=".05" d="m 36.31 5 c 5.859 4.062 9.688 10.831 9.688 18.5 c 0 12.426 -10.07 22.5 -22.5 22.5 c -7.669 0 -14.438 -3.828 -18.5 -9.688 c 1.037 1.822 2.306 3.499 3.781 4.969 c 4.085 3.712 9.514 5.969 15.469 5.969 c 12.703 0 23 -10.298 23 -23 c 0 -5.954 -2.256 -11.384 -5.969 -15.469 c -1.469 -1.475 -3.147 -2.744 -4.969 -3.781 z m 4.969 3.781 c 3.854 4.113 6.219 9.637 6.219 15.719 c 0 12.703 -10.297 23 -23 23 c -6.081 0 -11.606 -2.364 -15.719 -6.219 c 4.16 4.144 9.883 6.719 16.219 6.719 c 12.703 0 23 -10.298 23 -23 c 0 -6.335 -2.575 -12.06 -6.719 -16.219 z"/>
	<path opacity=".1" d="m 41.28 8.781 c 3.712 4.085 5.969 9.514 5.969 15.469 c 0 12.703 -10.297 23 -23 23 c -5.954 0 -11.384 -2.256 -15.469 -5.969 c 4.113 3.854 9.637 6.219 15.719 6.219 c 12.703 0 23 -10.298 23 -23 c 0 -6.081 -2.364 -11.606 -6.219 -15.719 z"/>
	<path opacity=".2" d="m 31.25 2.375 c 8.615 3.154 14.75 11.417 14.75 21.13 c 0 12.426 -10.07 22.5 -22.5 22.5 c -9.708 0 -17.971 -6.135 -21.12 -14.75 a 23 23 0 0 0 44.875 -7 a 23 23 0 0 0 -16 -21.875 z"/>
	<circle fill="url(#bg)" cx="24" cy="24" r="23"/>
	<path opacity=".1" d="m 40.03 7.531 c 3.712 4.084 5.969 9.514 5.969 15.469 0 12.703 -10.297 23 -23 23 c -5.954 0 -11.384 -2.256 -15.469 -5.969 4.178 4.291 10.01 6.969 16.469 6.969 c 12.703 0 23 -10.298 23 -23 0 -6.462 -2.677 -12.291 -6.969 -16.469 z"/>
	<path d="M 24,9 28.7024,17.5280 38.2665,19.3650 31.6088,26.4720 32.8170,36.1350 24,32 15.1830,36.1350 16.3912,26.4720 9.7335,19.3650 19.2976,17.5280 Z" opacity=".1" transform="translate(1 1)"/>
	<path d="M 24, 9 28.7024,17.5280 27,21 24,24 23,18 Z" fill="#981a3b"/>
	<path d="M 28.7024,17.5280 38.2665,19.3650 31,23 24,24 Z" fill="#e4305a"/>
	<path d="M 38.2665,19.3650 31.6088,26.4720 27,26 24,24 Z" fill="#828282"/>
	<path d="M 31.6088,26.4720 32.8170,36.1350 27,30 24,24 Z" fill="#bfbfbf"/>
	<path d="M 32.8170,36.1350 24,32 23,28 24,24 Z" fill="#2d2266"/>
	<path d="M 24,32 15.1830,36.1350 20,28 24,24 Z" fill="#7a5fa8"/>
	<path d="M 15.1830,36.1350 16.3912,26.4720 20,25 24,24 Z" fill="#fde14e"/>
	<path d="M 16.3912,26.4720  9.7335,19.3650 17,21 24,24 Z" fill="#fcb913"/>
	<path d="M  9.7335,19.3650 19.2976,17.5280 22,20 24,24 Z" fill="#fde14e"/>
	<path d="M 19.2976,17.5280 24, 9 24,24 Z" fill="#fcb913"/>
</svg>

<svg version="1.1" viewBox="0 0 48 48" xmlns="http://www.w3.org/2000/svg">
 <defs>
  <linearGradient id="bg" x2="0" y1="1" y2="47" gradientUnits="userSpaceOnUse">
   <stop stop-color="#3ca43a" offset="0"/>
   <stop stop-color="#379535" offset="1"/>
  </linearGradient>
 </defs>
 <path d="m36.31 5c5.859 4.062 9.688 10.831 9.688 18.5 0 12.426-10.07 22.5-22.5 22.5-7.669 0-14.438-3.828-18.5-9.688 1.037 1.822 2.306 3.499 3.781 4.969 4.085 3.712 9.514 5.969 15.469 5.969 12.703 0 23-10.298 23-23 0-5.954-2.256-11.384-5.969-15.469-1.469-1.475-3.147-2.744-4.969-3.781zm4.969 3.781c3.854 4.113 6.219 9.637 6.219 15.719 0 12.703-10.297 23-23 23-6.081 0-11.606-2.364-15.719-6.219 4.16 4.144 9.883 6.719 16.219 6.719 12.703 0 23-10.298 23-23 0-6.335-2.575-12.06-6.719-16.219z" opacity=".05"/>
 <path d="m41.28 8.781c3.712 4.085 5.969 9.514 5.969 15.469 0 12.703-10.297 23-23 23-5.954 0-11.384-2.256-15.469-5.969 4.113 3.854 9.637 6.219 15.719 6.219 12.703 0 23-10.298 23-23 0-6.081-2.364-11.606-6.219-15.719z" opacity=".1"/>
 <path d="m31.25 2.375c8.615 3.154 14.75 11.417 14.75 21.13 0 12.426-10.07 22.5-22.5 22.5-9.708 0-17.971-6.135-21.12-14.75a23 23 0 0 0 44.875-7 23 23 0 0 0-16-21.875z" opacity=".2"/>
 <circle cx="24" cy="24" r="23" fill="url(#bg)"/>
 <path d="m40.03 7.531c3.712 4.084 5.969 9.514 5.969 15.469 0 12.703-10.297 23-23 23-5.954 0-11.384-2.256-15.469-5.969 4.178 4.291 10.01 6.969 16.469 6.969 12.703 0 23-10.298 23-23 0-6.462-2.677-12.291-6.969-16.469z" opacity=".1"/>
 <path transform="translate(1 1)" d="m24 9 4.7024 8.528 9.5641 1.837-6.6577 7.107 1.2082 9.663-8.817-4.135-8.817 4.135 1.2082-9.663-6.6577-7.107 9.5641-1.837z" opacity=".1"/>
 <path d="m24 9 4.7024 8.528-1.7024 3.472-3 3-1-6z" fill="#981a3b"/>
 <path d="m28.702 17.528 9.5641 1.837-7.2665 3.635-7 1z" fill="#e4305a"/>
 <path d="m38.266 19.365-6.6577 7.107-4.6088-0.472-3-2z" fill="#828282"/>
 <path d="m31.609 26.472 1.2082 9.663-5.817-6.135-3-6z" fill="#bfbfbf"/>
 <path d="m32.817 36.135-8.817-4.135-1-4 1-4z" fill="#2d2266"/>
 <path d="m24 32-8.817 4.135 4.817-8.135 4-4z" fill="#7a5fa8"/>
 <path d="m15.183 36.135 1.2082-9.663 3.6088-1.472 4-1z" fill="#fde14e"/>
 <path d="m16.391 26.472-6.6577-7.107 7.2665 1.635 7 3z" fill="#fcb913"/>
 <path d="m9.7335 19.365 9.5641-1.837 2.7024 2.472 2 4z" fill="#fde14e"/>
 <path d="m19.298 17.528 4.7024-8.528v15z" fill="#fcb913"/>
</svg>
